X:3521
T:Lancaster Hornpipe
O:england
R:Hornpipe
M:C
L:1/8
K:D
AG | FA d2 d2 cB | cdef e2 dc | \
defd gfed | ec A2ABAG |\
FA d2 d2 cB | cdef e2 de | \
fdec dBAG | F2 D2 D2:: (3ABc |\
dAFA DFAf | edcB A2 gf |\
ecAG FAdf | edcB A2AA |\
BG G/F/G gfed | edcB A2AA |\
BGAF GEAG | F2 D2 D2 :|


